X: 1
T: Martin Ansboro's
M: 4/4
L: 1/8
R: reel
K: Edor
e3 d BAFA | d2 fd adfd | e2 ed BAFA | faba fe e2 :|
befe befe | adfd adfd | befe befe | afde fe e2 :|
